dist/images/svg/rar.svg

<?xml version="1.0" encoding="UTF-8"?>
<svg width="38px" height="48px" viewBox="0 0 38 48" version="1.1" xmlns="http://www.w3.org/2000/svg" xmlns:xlink="http://www.w3.org/1999/xlink">
    <!-- Generator: Sketch 49.1 (51147) - http://www.bohemiancoding.com/sketch -->
    <title>Shape</title>
    <desc>Created with Sketch.</desc>
    <defs>
        <path d="M36,38 L36,13 L25,13 L25,2 L2,2 L2,46 L16,46 L16,48 L27,48 L0,48 L0,0 L27.006897,0 L38,11.0142212 L38,48 L27,48 L38,48 L38,38 L36,38 Z M27.006897,3.0189209 L27.006897,11.0142212 L35.0204468,11.0142212 L27.006897,3.0189209 Z M7.90909091,14 L16.0909091,14 C16.5927273,14 17,13.553 17,13 C17,12.447 16.5927273,12 16.0909091,12 L7.90909091,12 C7.40727273,12 7,12.447 7,13 C7,13.553 7.40727273,14 7.90909091,14 Z M7.90909091,20 L29.0909091,20 C29.5927273,20 30,19.553 30,19 C30,18.447 29.5927273,18 29.0909091,18 L7.90909091,18 C7.40727273,18 7,18.447 7,19 C7,19.553 7.40727273,20 7.90909091,20 Z M7.90909091,26 L29.0909091,26 C29.5927273,26 30,25.553 30,25 C30,24.447 29.5927273,24 29.0909091,24 L7.90909091,24 C7.40727273,24 7,24.447 7,25 C7,25.553 7.40727273,26 7.90909091,26 Z M7.90909091,32 L29.0909091,32 C29.5927273,32 30,31.553 30,31 C30,30.447 29.5927273,30 29.0909091,30 L7.90909091,30 C7.40727273,30 7,30.447 7,31 C7,31.553 7.40727273,32 7.90909091,32 Z M18,40 L20.761,40 C21.2303357,40 21.6446649,40.0568328 22.004,40.1705 C22.3633351,40.2841672 22.6639988,40.445499 22.906,40.6545 C23.1480012,40.863501 23.3294994,41.1128319 23.4505,41.4025 C23.5715006,41.6921681 23.632,42.0129982 23.632,42.365 C23.632,42.8710025 23.5128345,43.3073315 23.2745,43.674 C23.0361655,44.0406685 22.678669,44.3193324 22.202,44.51 L23.852,47.7 L22.411,47.7 L20.937,44.752 L19.309,44.752 L19.309,47.7 L18,47.7 L18,40 Z M20.761,43.63 C21.296336,43.63 21.6886654,43.5181678 21.938,43.2945 C22.1873346,43.0708322 22.312,42.761002 22.312,42.365 C22.312,41.9836648 22.1873346,41.6793345 21.938,41.452 C21.6886654,41.2246655 21.296336,41.111 20.761,41.111 L19.309,41.111 L19.309,43.63 L20.761,43.63 Z M27.086,40 L28.461,40 L31.189,47.7 L29.781,47.7 L29.176,45.984 L26.316,45.984 L25.711,47.7 L24.347,47.7 L27.086,40 Z M28.791,44.873 L27.746,41.639 L26.69,44.873 L28.791,44.873 Z M32,40 L34.761,40 C35.2303357,40 35.6446649,40.0568328 36.004,40.1705 C36.3633351,40.2841672 36.6639988,40.445499 36.906,40.6545 C37.1480012,40.863501 37.3294994,41.1128319 37.4505,41.4025 C37.5715006,41.6921681 37.632,42.0129982 37.632,42.365 C37.632,42.8710025 37.5128345,43.3073315 37.2745,43.674 C37.0361655,44.0406685 36.678669,44.3193324 36.202,44.51 L37.852,47.7 L36.411,47.7 L34.937,44.752 L33.309,44.752 L33.309,47.7 L32,47.7 L32,40 Z M35.061,43.63 C35.596336,43.63 35.9886654,43.5181678 36.238,43.2945 C36.4873346,43.0708322 36.612,42.761002 36.612,42.365 C36.612,41.9836648 36.4873346,41.6793345 36.238,41.452 C35.9886654,41.2246655 35.596336,41.111 35.061,41.111 L33.609,41.111 L33.609,43.63 L35.061,43.63 Z" id="path-1"></path>
    </defs>
    <g id="Symbols" stroke="none" stroke-width="1" fill="none" fill-rule="evenodd">
        <g id="File-type-/-RAR">
            <mask id="mask-2" fill="white">
                <use xlink:href="#path-1"></use>
            </mask>
            <use id="Shape" fill="#1B39BA" fill-rule="nonzero" xlink:href="#path-1"></use>
            <rect id="Rectangle-2" fill="#793193" mask="url(#mask-2)" x="16" y="38" width="22" height="10"></rect>
        </g>
    </g>
</svg>

<svg width="38" height="48" xmlns="http://www.w3.org/2000/svg" xmlns:xlink="http://www.w3.org/1999/xlink"><defs><path d="M36 38V13H25V2H2v44h14v2h11H0V0h27.007L38 11.014V48H27h11V38h-2zM27.007 3.019v7.995h8.013L27.007 3.02zM7.909 14h8.182c.502 0 .909-.447.909-1 0-.553-.407-1-.91-1H7.91c-.503 0-.91.447-.91 1 0 .553.407 1 .91 1zm0 6h21.182c.502 0 .909-.447.909-1 0-.553-.407-1-.91-1H7.91c-.503 0-.91.447-.91 1 0 .553.407 1 .91 1zm0 6h21.182c.502 0 .909-.447.909-1 0-.553-.407-1-.91-1H7.91c-.503 0-.91.447-.91 1 0 .553.407 1 .91 1zm0 6h21.182c.502 0 .909-.447.909-1 0-.553-.407-1-.91-1H7.91c-.503 0-.91.447-.91 1 0 .553.407 1 .91 1zM18 40h2.761c.47 0 .884.057 1.243.17.36.114.66.275.902.484.242.21.423.459.545.748.12.29.181.611.181.963 0 .506-.12.942-.358 1.309s-.595.645-1.072.836l1.65 3.19h-1.441l-1.474-2.948h-1.628V47.7H18V40zm2.761 3.63c.535 0 .928-.112 1.177-.336.25-.223.374-.533.374-.929 0-.381-.125-.686-.374-.913-.25-.227-.642-.341-1.177-.341h-1.452v2.519h1.452zM27.086 40h1.375l2.728 7.7h-1.408l-.605-1.716h-2.86l-.605 1.716h-1.364l2.739-7.7zm1.705 4.873l-1.045-3.234-1.056 3.234h2.101zM32 40h2.761c.47 0 .884.057 1.243.17.36.114.66.275.902.484.242.21.423.459.544.748.122.29.182.611.182.963 0 .506-.12.942-.357 1.309-.239.367-.596.645-1.073.836l1.65 3.19h-1.441l-1.474-2.948h-1.628V47.7H32V40zm3.061 3.63c.535 0 .928-.112 1.177-.336.25-.223.374-.533.374-.929 0-.381-.125-.686-.374-.913-.25-.227-.642-.341-1.177-.341h-1.452v2.519h1.452z" id="a"/></defs><g fill="none" fill-rule="evenodd"><mask id="b" fill="#fff"><use xlink:href="#a"/></mask><use fill="#1B39BA" fill-rule="nonzero" xlink:href="#a"/><path fill="#793193" mask="url(#b)" d="M16 38h22v10H16z"/></g></svg>
